!!!COM: Vivaldi, Antonio Lucio
!!!CDT: 1678/03/04-1741/08/28
!!!OPR: 12 Sonatas for Violin and Basso continuo
!!!OTL: Sonata in F major, op. @{OPS}, no. @{ONM} (@{SCT})
!!!OPS: 2
!!!ONM: 4
!!!OMV: 3. Sarabanda
!!!SCT: RV 20
!!!SCA: Antonio Vivaldi: Thematisch-systematisches Verzeichnis seiner Werke (Ryom-Verzeichnis)
!!!OMD: Andante
!!!key: F
**kern	**dynam	**fb	**kern	**dynam
*part2	*	*	*part1	*
*staff2	*	*	*staff1	*
*ICklav	*	*	*ICstr	*
*Icemba	*	*	*Ivioln	*
*I"Basso continuo	*	*	*I"Violino	*
*I'bc	*	*	*I'v	*
*>[A,A,B,B]	*>[A,A,B,B]	*>[A,A,B,B]	*>[A,A,B,B]	*>[A,A,B,B]
*>norep[A,B]	*>norep[A,B]	*>norep[A,B]	*>norep[A,B]	*>norep[A,B]
*>A	*>A	*>A	*>A	*>A
*clefF4	*	*	*clefG2	*
*k[b-]	*	*	*k[b-]	*
*F:	*	*	*F:	*
*M3/4	*	*	*M3/4	*
*MM80	*	*	*MM80	*
=1	=1	=1	=1	=1
2.r	.	.	8ff\L	.
.	.	.	(16ee\L	.
.	.	.	16dd\JJ	.
.	.	.	8cc/L	.
.	.	.	8b-y/	.
.	.	.	8a/	.
.	.	.	8g/J)	.
=2	=2	=2	=2	=2
4r	.	.	4f/	.
4r	.	.	[2ff\	.
4F\	.	.	.	.
=3	=3	=3	=3	=3
4G\	.	7	4ff\]	.
4CC/	.	.	8ee\L	.
.	.	.	8dd\J	.
4G\	.	6	4ee\	.
=4	=4	=4	=4	=4
4A\	.	6	2ff\	.
4FF/	.	.	.	.
[4c\	.	6	4aa\	.
=5	=5	=5	=5	=5
4c\]	.	4 2	4dd\	.
8B-y\L	.	5	4d/	.
8A\J	.	.	.	.
[4B-y\	.	6	4gg\	.
=6	=6	=6	=6	=6
4B-y\]	.	4 2	4ee\	.
8A\L	.	5	4c/	.
8G\J	.	.	.	.
4A\	.	6	4ff\	.
=7	=7	=7	=7	=7
4B-y\	.	7 5	8b-y/L	.
.	.	.	8a/J	.
4c\	.	5 4	4.g/T	.
4C/	.	X 3	.	.
.	.	.	8f/	.
=8	=8	=8	=8	=8
4F\	.	.	4f/	.
8A\L	.	.	[2ff\	.
8G\J	.	.	.	.
4F\	.	.	.	.
=9	=9	=9	=9	=9
4G\	.	7	4ff\]	.
4C/	.	.	8ee\L	.
.	.	.	8dd\J	.
[4c\	.	.	4cc\	.
=10	=10	=10	=10	=10
4c\]	.	4 2	4dd\	.
8B-y\L	.	6	4g/	.
8A\J	.	.	.	.
4B-y\	.	.	[4gg\	.
!!LO:LB:g=original
=11	=11	=11	=11	=11
4A\	.	7	4gg\]	.
[2d\	.	.	8ff\L	.
.	.	.	8ee\J	.
.	.	.	4ff\	.
=12	=12	=12	=12	=12
4d\]	.	4 2	4ee\	.
4c\	.	6	[2aa\	.
4C/	.	.	.	.
=13	=13	=13	=13	=13
4Bn\	.	7	4aa\]	.
4BBn/	.	6	8gg\L	.
.	.	.	8ff\J	.
4C/	.	.	4ee\	.
=14	=14	=14	=14	=14
4F\	.	6 5	4aa\	.
4G\	.	5 4	4.dd\T	.
4GG/	.	n	.	.
.	.	.	8cc\	.
=15	=15	=15	=15	=15
2.C/	.	.	2.cc\	.
=16:|!|:	=16:|!|:	=16:|!|:	=16:|!|:	=16:|!|:
*>B	*>B	*>B	*>B	*>B
2.r	.	.	8ccc\L	.
.	.	.	(16bbn\L	.
.	.	.	16aa\JJ	.
.	.	.	8gg\L	.
.	.	.	8ff\	.
.	.	.	8ee\	.
.	.	.	8dd\J)	.
=17	=17	=17	=17	=17
4r	.	.	4cc\	.
4r	.	.	[2ccc\	.
4c\	.	.	.	.
=18	=18	=18	=18	=18
4d\	.	7	4ccc\]	.
4GG/	.	.	8bbn\L	.
.	.	.	8aa\J	.
4d\	.	6nr	4bb\	.
=19	=19	=19	=19	=19
4e\	.	6	2ccc\	.
4C/	.	.	.	.
4r	.	.	4ccc\	.
=20	=20	=20	=20	=20
4r	.	.	4ddd\	.
4r	.	.	8ff\L	.
.	.	.	8gg\J	.
4f\	.	.	4aa\	.
=21	=21	=21	=21	=21
4g\	.	.	4bb-y\	.
8d\L	.	6	4B-y/	.
8e\J	.	.	.	.
4f\	.	.	4r	.
=22	=22	=22	=22	=22
4e\	.	6	4ccc\	.
4C/	.	.	8ee\L	.
.	.	.	8ff\J	.
4r	.	.	4gg\	.
!!LO:LB:g=original
=23	=23	=23	=23	=23
4f\	.	.	4aa\	.
8c\L	.	.	4A/	.
8d\J	.	.	.	.
4e-X\	.	6	4r	.
=24	=24	=24	=24	=24
4d\	.	6	(8bb-y\L	.
.	.	.	8aa\)	.
4B-y\	.	6	(8gg\	.
.	.	.	8ff\)	.
4G\	.	.	(8ee\	.
.	.	.	8dd\J)	.
=25	=25	=25	=25	=25
4.A\	.	#	8cc#X\L	.
.	.	.	8bn\	.
.	.	.	8a\	.
8G\	.	.	8cc#y\J	.
4F\	.	6	[4dd\	.
=26	=26	=26	=26	=26
4G\	.	6 5	4dd\]	.
4A\	.	5 4	4e/	.
4AA/	.	#	4cc#X\	.
=27	=27	=27	=27	=27
4D\	.	.	4d/	.
4r	.	.	[2ff\	.
8d\L	.	.	.	.
8c\J	.	.	.	.
=28	=28	=28	=28	=28
4Bn\	.	5	4ff\]	.
4BBn/	.	6	8gg\L	.
.	.	.	8ff\J	.
4B\	.	.	4gg\	.
=29	=29	=29	=29	=29
4c\	.	-	4ee-X\	.
4C/	.	.	4c/	.
8c\L	.	.	[4ee-y\	.
8B-X\J	.	.	.	.
=30	=30	=30	=30	=30
4A\	.	5-r	4ee-y\]	.
4AA/	.	.	8ff\L	.
.	.	.	8ee-X\J	.
4A\	.	6	4ff\	.
=31	=31	=31	=31	=31
4B-y\	.	.	4dd\	.
4BB-y/	.	.	4B-y/	.
8B-y\L	.	.	4ff\	.
8A\J	.	.	.	.
=32	=32	=32	=32	=32
4.G\	.	.	4.bb-y\	.
8A\	.	.	8aa\	.
4B-y\	.	.	8gg\L	.
.	.	.	8ff\J	.
=33	=33	=33	=33	=33
4.c\	.	.	8ee\L	.
.	.	.	8dd\J	.
.	.	.	4cc\	.
8d\	.	.	.	.
8c\L	.	.	4r	.
8B-y\J	.	.	.	.
!!LO:LB:g=original
=34	=34	=34	=34	=34
2A\	.	6	8ff\L	.
.	.	.	(16ee\L	.
.	.	.	16dd\JJ	.
.	.	.	8cc/L	.
.	.	.	8b-y/	.
4r	.	.	8a/	.
.	.	.	8g/J)	.
=35	=35	=35	=35	=35
4r	.	.	4f/	.
4r	.	.	[2ff\	.
4F\	.	.	.	.
=36	=36	=36	=36	=36
4G\	.	7	4ff\]	.
4CC/	.	.	8ee\L	.
.	.	.	8dd\J	.
4G\	.	6	4ee\	.
=37	=37	=37	=37	=37
4A\	.	6	2ff\	.
4FF/	.	.	.	.
[4c\	.	6 4	4aa\	.
=38	=38	=38	=38	=38
4c\]	.	4 2	4dd\	.
8B-y\L	.	5	4d/	.
8A\J	.	.	.	.
[4B-y\	.	6	4gg\	.
=39	=39	=39	=39	=39
4B-y\]	.	4 2	4ee\	.
8A\L	.	5	4c/	.
8G\J	.	.	.	.
4A\	.	6	4ff\	.
=40	=40	=40	=40	=40
4B-y\	.	7 5	8b-y/L	.
.	.	.	8a/J	.
4c\	.	5 4	4.g/T	.
4C/	.	X 3	.	.
.	.	.	8f/	.
=41	=41	=41	=41	=41
4F\	.	.	4f/	.
4r	.	.	[2cc\	p
4A\	p	.	.	.
=42	=42	=42	=42	=42
4D\	.	7	4cc\]	.
4DD/	.	.	8b-y/L	.
.	.	.	8a/J	.
4G\	.	6	[4b-y\	.
=43	=43	=43	=43	=43
4C/	.	7	4b-y\]	.
4CC/	.	6	8a/L	.
.	.	.	8g/J	.
4F\	.	.	4a/	.
=44	=44	=44	=44	=44
4BB-y/	.	6 5	4dd\	.
2C/	.	5 4	4.g/T	.
.	.	X 3	.	.
.	.	.	8f/	.
=45	=45	=45	=45	=45
2.FF/;	.	.	2.f/;	.
=:|!	=:|!	=:|!	=:|!	=:|!
*-	*-	*-	*-	*-
!!!SMS: RV 20 / Estienne Roger, Amsterdam [facs.]
!!!ENC: Fran Bennion; rev. 04/21 E. Correia
!!!END: 2004/11/24
!!!ONB: Converted from MuseData with musedata2hum on Sat May 11 12:07:52 2024
!!!YEM: (C) 2004, 2004 Center for Computer Assisted Research in the Humanities.
!!!system-decoration: [(s1,s2)]
!!!URL-info: https://wiki.ccarh.org/wiki/MuseData:_Antonio_Vivaldi#Op._2:_Sonate_a_violino_e_basso_per_il_cembalo
!!!URL-pdf: https://pdf.musedata.org/vivaldi-op02-no04.pdf#page=3 MuseData edition
!!!URL-pdf: http://conquest.imslp.info/files/imglnks/usimg/b/b7/IMSLP99075-PMLP183164-Vivaldi_-_Sonatas_Op2.pdf#page=15 Estienne Roger Amsterdam: Estienne Roger, No.2, n.d.[1711].
!!!URL-youtube: https://www.youtube.com/watch?v=SiijZmW9jKM&t=1205s L'Arte dell'Arco
!!!title: @{OTL}, mov. @{OMV}
!!!filter-chint: chint -mid
!!!EEV: 2024/05/11
!!!source-file: https://bitbucket.org/musedata/vivaldi/src/master/roger/op2/no04/stage2/03/01
!!!source-file: https://bitbucket.org/musedata/vivaldi/src/master/roger/op2/no04/stage2/03/02
